public/manufacturers/lynk_and_co.svg

<svg xmlns="http://www.w3.org/2000/svg" viewBox="0 0 233 35">
  <path
    d="M119.133 1.146C112.833 8.21292 106.723 15.2799 100.423 22.3468C100.423 25.9757 100.423 29.6047 100.423 33.0427C102.332 33.0427 104.05 33.0427 105.959 33.0427V23.6838C107.296 22.1558 108.632 20.6278 109.969 19.2908C110.16 19.4818 116.651 28.8407 119.706 33.0427H126.388C122.188 27.1217 117.987 21.0098 113.787 15.0889C117.415 10.8869 125.624 1.52799 125.815 1.146H119.133Z"
    fill="#000"
  />
  <path
    d="M5.53662 1.146H0V33.0427H20.8101V27.8857H5.53662V1.146Z"
    fill="#000"
  />
  <path
    d="M25.7739 1.14598C25.9648 1.52798 40.4746 23.6838 40.4746 23.6838V33.0427H46.2021C46.2021 32.6607 46.2021 23.3018 46.2021 22.1558C46.2021 22.1558 32.0742 1.14598 32.0742 0.954987C29.9741 1.14598 27.874 1.14598 25.7739 1.14598Z"
    fill="#000"
  />
  <path
    d="M81.9038 21.2008C74.8398 14.1339 67.7759 7.06693 60.7119 0V33.0427H66.2485V12.9879C73.3125 20.0548 80.3765 27.1217 87.4404 34.1887V1.14599H81.7129V21.2008"
    fill="#000"
  />
  <path
    d="M183.09 27.8857C182.518 28.0767 182.136 28.0767 181.563 28.0767C181.181 28.0767 180.227 28.0767 179.081 27.8857C177.172 27.5037 175.263 26.5487 173.926 25.2117C172.781 24.0658 171.635 22.5378 171.062 21.0098C170.299 18.9088 169.917 16.0438 171.062 13.1789C172.208 10.1229 174.499 7.63992 177.554 6.68493C178.699 6.30293 179.845 6.11193 180.99 6.11193C183.472 6.11193 185.763 7.06692 187.672 8.59491C188.818 7.25792 190.154 5.72994 191.3 4.39295C185.763 -0.382002 178.126 -0.573 172.399 3.24696C167.626 6.30293 164.953 11.4599 164.953 17.1898C164.953 24.6387 169.917 31.3237 176.981 33.2337C183.09 34.7616 189.582 32.6607 193.4 27.5037C192.063 26.3577 190.536 25.2117 189.2 24.0658C187.672 25.9757 185.572 27.3127 183.09 27.8857Z"
    fill="#000"
  />
  <path
    d="M150.825 28.2677C152.162 26.9307 153.498 25.5938 154.644 24.2568H150.062C149.489 24.8298 149.107 25.2118 148.534 25.7848C147.198 24.2568 145.861 22.7288 144.525 21.2008C144.716 21.0098 145.098 20.8188 145.289 20.4368C146.243 19.6728 147.007 18.9088 147.771 17.7628C148.152 16.8078 148.725 15.2799 148.152 13.5609C147.771 11.8419 146.434 10.5049 144.907 9.74091C141.661 8.21293 137.843 10.1229 137.079 13.5609C136.888 14.5159 136.888 15.6619 137.079 16.8078C137.461 17.1898 137.652 17.7628 137.843 18.1448C138.416 19.0998 139.179 19.8638 139.943 20.8188C138.988 21.5828 137.843 22.3468 137.27 23.3018C137.079 23.6838 136.697 24.0658 136.315 24.8298C135.934 25.5938 135.934 26.5487 135.934 27.5037C136.125 29.4137 137.079 30.9417 138.416 32.0877C139.561 32.8517 140.707 33.4247 142.043 33.6157C142.807 33.6157 143.379 33.6157 143.761 33.6157C144.143 33.6157 144.334 33.4247 144.716 33.4247C145.289 33.2337 146.052 32.8517 146.625 32.4697C147.198 32.0877 147.771 31.3237 148.534 30.7507C149.298 31.5147 150.062 32.4697 150.634 33.2337H155.025C153.689 31.5147 152.162 29.7957 150.825 28.2677ZM140.134 13.9429C140.325 13.5609 140.516 13.1789 140.897 12.7969C141.47 12.4149 142.043 12.2239 142.807 12.2239C144.334 12.4149 145.289 13.5609 145.289 14.8979C145.289 16.0439 144.525 16.6168 144.143 16.9988C143.952 17.1898 143.761 17.3808 143.57 17.5718C143.379 17.7628 142.807 18.1448 142.234 18.7178C141.47 17.9538 140.897 17.1898 140.516 16.6168C140.325 15.8529 139.943 14.8979 140.134 13.9429ZM145.861 28.2677C145.479 28.6497 144.907 29.0317 144.525 29.4137C144.334 29.6047 143.952 29.7957 143.952 29.7957C143.761 29.7957 143.761 29.9867 143.57 29.9867C143.379 29.9867 142.998 30.1777 142.807 30.1777C142.425 30.1777 141.852 30.1777 141.279 29.7957C140.134 29.2227 139.37 28.2677 139.37 27.1217C139.37 26.5487 139.37 26.1667 139.561 25.7848C139.561 25.5938 139.752 25.4028 139.943 25.2118C140.325 24.4478 141.088 23.8748 142.234 23.1108C143.57 24.6388 145.098 26.3577 146.434 27.8857C146.052 28.0767 146.052 28.2677 145.861 28.2677Z"
    fill="#000"
  />
  <path
    d="M207.528 19.0998C205.619 19.0998 203.9 19.0998 201.991 19.0998C202.373 22.9198 204.091 26.3578 206.764 29.0317C208.292 30.5597 209.819 31.3237 210.392 31.7057C211.155 32.0877 211.919 32.4697 212.683 32.6607C214.019 33.0427 215.737 33.4247 217.837 33.4247C220.128 33.4247 222.992 32.8517 225.856 30.7507C228.911 28.6497 231.202 25.4028 232.347 21.7738C233.684 16.9989 233.111 10.8869 229.292 6.30296C226.429 2.674 222.038 0.382019 217.456 0.382019C213.446 0.382019 209.628 1.91 206.764 4.77497C208.101 5.92096 209.628 7.06695 210.964 8.40394C213.637 6.11196 216.692 5.72997 218.983 6.11196C220.892 6.49396 222.801 7.44895 224.138 8.78594C226.238 10.8869 227.383 13.7519 227.383 16.8079C227.383 20.0548 226.047 23.3018 223.374 25.5938C222.038 26.7398 220.51 27.3127 218.983 27.6947C217.265 28.0767 215.355 27.8857 213.637 27.1218C210.583 25.9758 208.101 22.9198 207.528 19.0998Z"
    fill="#000"
  />
</svg>

<svg xmlns="http://www.w3.org/2000/svg" viewBox="0 0 233 35"><path d="M119.133 1.146c-6.3 7.067-12.41 14.134-18.71 21.2v10.697h5.536v-9.36c1.337-1.527 2.673-3.055 4.01-4.392.191.19 6.682 9.55 9.737 13.752h6.682c-4.2-5.921-8.401-12.033-12.601-17.954 3.628-4.202 11.837-13.561 12.028-13.943h-6.682ZM5.537 1.146H0v31.897h20.81v-5.157H5.537V1.146ZM25.774 1.146c.19.382 14.7 22.538 14.7 22.538v9.359h5.728V22.156S32.074 1.146 32.074.955c-2.1.191-4.2.191-6.3.191ZM81.904 21.2 60.712 0v33.043h5.537V12.988l21.191 21.2V1.147h-5.727v20.055M183.09 27.886c-.572.19-.954.19-1.527.19-.382 0-1.336 0-2.482-.19-1.909-.382-3.818-1.337-5.155-2.674-1.145-1.146-2.291-2.674-2.864-4.202-.763-2.101-1.145-4.966 0-7.831 1.146-3.056 3.437-5.54 6.492-6.494a10.803 10.803 0 0 1 3.436-.573c2.482 0 4.773.955 6.682 2.483 1.146-1.337 2.482-2.865 3.628-4.202-5.537-4.775-13.174-4.966-18.901-1.146-4.773 3.056-7.446 8.213-7.446 13.943 0 7.449 4.964 14.134 12.028 16.044 6.109 1.528 12.601-.573 16.419-5.73-1.337-1.146-2.864-2.292-4.2-3.438-1.528 1.91-3.628 3.247-6.11 3.82ZM150.825 28.268c1.337-1.337 2.673-2.674 3.819-4.011h-4.582l-1.528 1.528-4.009-4.584c.191-.191.573-.382.764-.764.954-.764 1.718-1.528 2.482-2.674.381-.955.954-2.483.381-4.202-.381-1.72-1.718-3.056-3.245-3.82-3.246-1.528-7.064.382-7.828 3.82-.191.955-.191 2.1 0 3.247.382.382.573.955.764 1.337.573.955 1.336 1.719 2.1 2.674-.955.764-2.1 1.528-2.673 2.483-.191.382-.573.764-.955 1.528-.381.764-.381 1.719-.381 2.674.191 1.91 1.145 3.438 2.482 4.584 1.145.764 2.291 1.337 3.627 1.528h1.718c.382 0 .573-.191.955-.191.573-.191 1.336-.573 1.909-.955s1.146-1.146 1.909-1.72c.764.765 1.528 1.72 2.1 2.484h4.391c-1.336-1.72-2.863-3.438-4.2-4.966Zm-10.691-14.325c.191-.382.382-.764.763-1.146.573-.382 1.146-.573 1.91-.573 1.527.19 2.482 1.337 2.482 2.674 0 1.146-.764 1.719-1.146 2.1l-.573.574c-.191.19-.763.573-1.336 1.146a13.854 13.854 0 0 1-1.718-2.101c-.191-.764-.573-1.72-.382-2.674Zm5.727 14.325c-.382.382-.954.764-1.336 1.146-.191.19-.573.382-.573.382-.191 0-.191.19-.382.19s-.572.192-.763.192c-.382 0-.955 0-1.528-.382-1.145-.573-1.909-1.528-1.909-2.674 0-.573 0-.955.191-1.337 0-.191.191-.382.382-.573.382-.764 1.145-1.337 2.291-2.101 1.336 1.528 2.864 3.247 4.2 4.775-.382.19-.382.382-.573.382ZM207.528 19.1h-5.537c.382 3.82 2.1 7.258 4.773 9.932 1.528 1.528 3.055 2.292 3.628 2.674.763.382 1.527.764 2.291.955 1.336.382 3.054.764 5.154.764 2.291 0 5.155-.573 8.019-2.674 3.055-2.101 5.346-5.348 6.491-8.977 1.337-4.775.764-10.887-3.055-15.471-2.863-3.629-7.254-5.921-11.836-5.921-4.01 0-7.828 1.528-10.692 4.393 1.337 1.146 2.864 2.292 4.2 3.629 2.673-2.292 5.728-2.674 8.019-2.292 1.909.382 3.818 1.337 5.155 2.674 2.1 2.1 3.245 4.966 3.245 8.022 0 3.247-1.336 6.494-4.009 8.786-1.336 1.146-2.864 1.719-4.391 2.1-1.718.383-3.628.192-5.346-.572-3.054-1.146-5.536-4.202-6.109-8.022Z"/></svg>
